ZKTeco/img/Group-5.svg

<svg width="32" height="32" viewBox="0 0 32 32" fill="none" xmlns="http://www.w3.org/2000/svg">
<g opacity="0.4">
<path d="M14.6282 10.7451C14.6282 12.9123 12.8711 14.6688 10.7031 14.6688C8.53507 14.6688 6.77847 12.9123 6.77847 10.7451C6.77847 8.57836 8.53507 6.82178 10.7031 6.82178C12.8711 6.82178 14.6282 8.57836 14.6282 10.7451Z" fill="#D3D4D7"/>
<path d="M25.2212 10.7452C25.2212 12.9124 23.4642 14.6689 21.2959 14.6689C19.1284 14.6689 17.3714 12.9124 17.3714 10.7452C17.3714 8.57836 19.1284 6.82178 21.2959 6.82178C23.4642 6.82178 25.2212 8.57836 25.2212 10.7452Z" fill="#D3D4D7"/>
<path d="M14.6282 21.2549C14.6282 23.422 12.8711 25.1785 10.7031 25.1785C8.53507 25.1785 6.77847 23.422 6.77847 21.2549C6.77847 19.088 8.53507 17.3315 10.7031 17.3315C12.8711 17.3315 14.6282 19.088 14.6282 21.2549Z" fill="#D3D4D7"/>
<path d="M25.2212 21.2549C25.2212 23.422 23.4642 25.1785 21.2959 25.1785C19.1284 25.1785 17.3714 23.422 17.3714 21.2549C17.3714 19.088 19.1284 17.3315 21.2959 17.3315C23.4642 17.3315 25.2212 19.088 25.2212 21.2549Z" fill="#D3D4D7"/>
<path fill-rule="evenodd" clip-rule="evenodd" d="M32 16C32 7.17724 24.8228 0 16 0C7.17724 0 0 7.17724 0 16C0 24.6758 6.93996 31.7603 15.5603 31.994L16 32C24.8228 32 32 24.8228 32 16ZM1.42593 15.9998C1.42593 8.10766 7.73679 1.66046 15.5785 1.43667L16 1.43066C24.0359 1.43066 30.5741 7.96668 30.5741 15.9998C30.5741 24.0329 24.0359 30.5689 16 30.5689C7.96419 30.5689 1.42593 24.0328 1.42593 15.9998Z" fill="#D3D4D7"/>
</g>
</svg>

<svg width="32" height="32" fill="none" xmlns="http://www.w3.org/2000/svg"><g opacity=".4" fill="#D3D4D7"><path d="M14.628 10.745a3.924 3.924 0 01-3.925 3.924 3.924 3.924 0 110-7.847 3.924 3.924 0 013.925 3.923zm10.593 0a3.924 3.924 0 01-3.925 3.924 3.924 3.924 0 110-7.847 3.924 3.924 0 013.925 3.923zm-10.593 10.51a3.924 3.924 0 01-3.925 3.924 3.924 3.924 0 110-7.848 3.924 3.924 0 013.925 3.924zm10.593 0a3.924 3.924 0 01-3.925 3.924 3.924 3.924 0 110-7.848 3.924 3.924 0 013.925 3.924z"/><path fill-rule="evenodd" clip-rule="evenodd" d="M32 16c0-8.823-7.177-16-16-16S0 7.177 0 16c0 8.676 6.94 15.76 15.56 15.994L16 32c8.823 0 16-7.177 16-16zM1.426 16c0-7.892 6.31-14.34 14.152-14.563L16 1.43c8.036 0 14.574 6.536 14.574 14.569 0 8.033-6.538 14.569-14.574 14.569S1.426 24.033 1.426 15.999z"/></g></svg>
